X: 32
T: Sparkle of Starlight
C: Rodney Miller
R: reel
Z: 2019 John Chambers <jc:trillian.mit.edu>
S: Handout at Roaring Jelly practice
M: C|
L: 1/8
K: A
|:\
"A"EA (3AAA BcBA | "Bm"DA (3AAA BcBA | "C#m"EA (3AAA BcBA | "Dmaj7"B2BA cBAF |
"A"EA (3AAA BcBA | "Bm"DA (3AAA BcBA | "C#m"EA (3AAA BcBA | "D"B3A A4 :|
[|\
"A"e2ce "Bm"fccf | "C#m"ecBc "F#"A2Bc | "D"d3B "C#m"cBAc | "Bm"BAGA "E"B2cd |
"A"e2ce "Bm"fccf | "C#m"ecBc "F#"A2Bc | "D"d2Bd "C#m"cBAc | "Bm"BAGE "A"A2cd ||
||\
"A"e2ce "Bm"faaf | "C#m"ecBc "F#"A2Bc | "D"d2Bd "C#m"cBAc | "Bm"BAGA "E"B2AG |
"D"FddF "C#m"EccE | "Bm"DABA "A"cBAE | "Bm"FGAd "E"cBAG | "D(A)"A4- A4 |]

%%sep 1 1 500

